assets/sprite/svg/faq__pin_with_shadow.svg

<svg width="41" height="77" viewBox="0 0 41 77" fill="none" xmlns="http://www.w3.org/2000/svg">
<path fill-rule="evenodd" clip-rule="evenodd" d="M14.2865 74.3029C11.5864 75.7438 9.1393 74.6081 5.31755 70.7559C1.49581 66.9038 0.028574 65.216 0.957085 63.024C2.89511 63.024 3.98181 63.121 4.84279 63.4923C8.26233 62.4555 9.64346 60.3171 10.8165 58.5008L10.8166 58.5007C10.9497 58.2947 11.08 58.0928 11.2104 57.8972C11.8256 57.3699 12.486 56.4132 13.2154 55.3567L13.2154 55.3566C13.7662 54.5586 14.3564 53.7037 14.9961 52.9338C13.9141 50.7675 13.9652 48.681 14.628 45.5928C15.6549 40.8078 22.1487 43.8839 25.9071 46.2764C26.2803 46.4722 26.6461 46.6791 27.0037 46.8951L37.7448 37.0482C38.5466 36.9701 40.0605 37.2887 39.7018 39.1886L29.6447 48.7602C33.5312 51.9299 35.7879 55.8111 34.7936 56.8717C31.4593 60.207 27.5433 60.3329 24.0296 59.678C23.9756 59.769 23.918 59.859 23.8567 59.9479C23.1404 60.1516 19.5375 62.863 16.9044 64.8446L16.9043 64.8446C15.7162 65.7387 14.7256 66.4842 14.2867 66.7837C13.4139 67.3792 13.4745 69.6482 13.5539 71.2318C13.7985 71.8437 14.0167 72.7745 14.2865 74.3029Z" fill="black" fill-opacity="0.06"/>
<path d="M39.8978 36.7065L34.0874 30.5543L32.0364 32.605L37.8471 38.7572C39.7611 39.0306 40.0117 37.504 39.8978 36.7065Z" fill="url(#paint0_linear)"/>
<path d="M17.9296 19.7585C14.8536 22.151 12.461 31.3793 18.955 35.1389C24.4217 38.3039 32.7989 35.5132 35.7007 29.3286C38.6025 23.144 37.4829 17.4124 32.2847 14.9735C27.8396 13.2646 22.8678 13.9746 17.9296 19.7585Z" fill="url(#paint1_radial)"/>
<path d="M35.1357 29.5289C36.8938 26.5979 36.8446 22.4653 36.5028 20.3007C36.5028 21.8957 36.3661 25.3591 35.8192 26.4528C35.1357 27.82 34.4521 29.8707 30.3507 33.2886C27.0695 36.0229 22.6035 36.0229 20.7806 35.6811C27.2746 37.39 33.0855 32.9468 35.1357 29.5289Z" fill="white" fill-opacity="0.13"/>
<path d="M28.9837 19.2753C27.3431 19.2753 24.1987 15.4018 22.8315 13.465C19.5275 16.0853 13.1246 21.3261 13.9449 21.3261C14.9702 21.3261 16.8345 23.5839 17.7045 24.7439C18.7299 26.1111 19.4135 27.4782 19.7552 28.5036C22.4895 30.2125 25.5659 28.1618 27.9582 26.1111C30.1601 24.2236 29.6673 20.8703 28.9837 19.2753Z" fill="url(#paint2_linear)"/>
<ellipse rx="7.65111" ry="10.3993" transform="matrix(-0.669628 -0.742697 -0.742697 0.669628 14.4949 13.1232)" fill="url(#paint3_linear)"/>
<path d="M8.477 8.33812C4.79955 12.3283 4.18257 16.3005 5.74271 18.9335C8.48046 20.4019 13.1795 19.2112 16.857 15.2211C20.5345 11.231 21.1231 6.97098 19.5947 4.3827C17.3635 3.55311 12.1545 4.34799 8.477 8.33812Z" fill="url(#paint4_linear)"/>
<defs>
<linearGradient id="paint0_linear" x1="37.5284" y1="32.2633" x2="35.1359" y2="37.7318" gradientUnits="userSpaceOnUse">
<stop stop-color="#C2C2C2"/>
<stop offset="1" stop-color="#676767"/>
</linearGradient>
<radialGradient id="paint1_radial" cx="0" cy="0" r="1" gradientUnits="userSpaceOnUse" gradientTransform="translate(23.0545 28.645) rotate(55.1247) scale(13.7482 13.7848)">
<stop stop-color="#A33434"/>
<stop offset="1" stop-color="#ED6D6D"/>
</radialGradient>
<linearGradient id="paint2_linear" x1="24.8823" y1="16.541" x2="16.6794" y2="25.7693" gradientUnits="userSpaceOnUse">
<stop stop-color="#F06F6F"/>
<stop offset="1" stop-color="#992C2C"/>
</linearGradient>
<linearGradient id="paint3_linear" x1="5.65136" y1="5.11885" x2="1.80197" y2="18.7139" gradientUnits="userSpaceOnUse">
<stop stop-color="#F06F6F"/>
<stop offset="1" stop-color="#A73737"/>
</linearGradient>
<linearGradient id="paint4_linear" x1="19.535" y1="4.32765" x2="10.1859" y2="18.5917" gradientUnits="userSpaceOnUse">
<stop stop-color="#FF8787"/>
<stop offset="1" stop-color="#FF8787" stop-opacity="0"/>
</linearGradient>
</defs>
</svg>

<svg width="41" height="77" fill="none" xmlns="http://www.w3.org/2000/svg"><path fill-rule="evenodd" clip-rule="evenodd" d="M14.287 74.303c-2.7 1.44-5.148.305-8.97-3.547-3.821-3.852-5.288-5.54-4.36-7.732 1.938 0 3.025.097 3.886.468 3.42-1.036 4.8-3.175 5.973-4.991.134-.206.264-.408.394-.604.616-.527 1.276-1.484 2.005-2.54.551-.798 1.141-1.653 1.781-2.423-1.082-2.166-1.03-4.253-.368-7.341 1.027-4.785 7.52-1.71 11.28.683.372.196.738.403 1.096.62l10.74-9.848c.803-.078 2.316.24 1.958 2.14L29.645 48.76c3.886 3.17 6.143 7.051 5.149 8.112-3.335 3.335-7.25 3.46-10.764 2.806a4.706 4.706 0 01-.173.27c-.717.204-4.32 2.915-6.953 4.897-1.188.894-2.178 1.64-2.617 1.939-.873.595-.813 2.864-.733 4.448.245.612.463 1.543.732 3.07z" fill="#000" fill-opacity=".06"/><path d="M39.898 36.706l-5.81-6.152-2.052 2.051 5.811 6.152c1.914.274 2.165-1.253 2.05-2.05z" fill="url(#paint0_linear)"/><path d="M17.93 19.759c-3.076 2.392-5.469 11.62 1.025 15.38 5.467 3.165 13.844.374 16.746-5.81 2.901-6.185 1.782-11.917-3.416-14.356-4.445-1.708-9.417-.998-14.355 4.786z" fill="url(#paint1_radial)"/><path d="M35.136 29.529c1.758-2.931 1.709-7.064 1.367-9.228 0 1.595-.137 5.058-.684 6.152-.683 1.367-1.367 3.418-5.468 6.836-3.281 2.734-7.747 2.734-9.57 2.392 6.494 1.709 12.305-2.734 14.355-6.152z" fill="#fff" fill-opacity=".13"/><path d="M28.984 19.275c-1.64 0-4.785-3.873-6.153-5.81-3.303 2.62-9.706 7.861-8.886 7.861 1.025 0 2.89 2.258 3.76 3.418 1.025 1.367 1.709 2.734 2.05 3.76 2.735 1.708 5.81-.342 8.203-2.393 2.202-1.887 1.71-5.24 1.026-6.836z" fill="url(#paint2_linear)"/><ellipse rx="7.651" ry="10.399" transform="scale(-1 1) rotate(-47.962 7.503 22.854)" fill="url(#paint3_linear)"/><path d="M8.477 8.338c-3.677 3.99-4.294 7.963-2.734 10.595 2.737 1.469 7.437.278 11.114-3.712 3.678-3.99 4.266-8.25 2.738-10.838-2.232-.83-7.44-.035-11.118 3.955z" fill="url(#paint4_linear)"/><defs><linearGradient id="paint0_linear" x1="37.528" y1="32.263" x2="35.136" y2="37.732" gradientUnits="userSpaceOnUse"><stop stop-color="#C2C2C2"/><stop offset="1" stop-color="#676767"/></linearGradient><linearGradient id="paint2_linear" x1="24.882" y1="16.541" x2="16.679" y2="25.769" gradientUnits="userSpaceOnUse"><stop stop-color="#F06F6F"/><stop offset="1" stop-color="#992C2C"/></linearGradient><linearGradient id="paint3_linear" x1="5.651" y1="5.119" x2="1.802" y2="18.714" gradientUnits="userSpaceOnUse"><stop stop-color="#F06F6F"/><stop offset="1" stop-color="#A73737"/></linearGradient><linearGradient id="paint4_linear" x1="19.535" y1="4.328" x2="10.186" y2="18.592" gradientUnits="userSpaceOnUse"><stop stop-color="#FF8787"/><stop offset="1" stop-color="#FF8787" stop-opacity="0"/></linearGradient><radialGradient id="paint1_radial" cx="0" cy="0" r="1" gradientUnits="userSpaceOnUse" gradientTransform="rotate(55.125 -15.913 36.407) scale(13.7482 13.7848)"><stop stop-color="#A33434"/><stop offset="1" stop-color="#ED6D6D"/></radialGradient></defs></svg>
